X: 232
T:Tears
R:waltz
Z:added by Alf warnock alf0@rogers.com - www.alfwarnock.info/alfs
M:3/4
L:1/8
K:A
"E7"E AB|"A"c2 e2 (ga)|{f}"E7"g3f ed|"A7"cB3 {Bc}A2| {c}"D"d3e {fg}fe|
{cd}"A"e4 cA|"F#m"Jf2 e2z (c/2d/2)|"Bm"B4-Bc|"E7"B3E AB|
"A"c2 e2 (ga)|{f}"E7"g3Tf ed|"A7"cB3 {Bc}A2| {c}"D"d3e fe|
"A"e3c AF|"E7"Ec3 B2| "A"A4-AB|A3:|
B cd|\
"E7"B3E Bc|d2 f3f/2e/2|"A"e3f ed|c4 cd|\
"E7"B3E Bc|d2 f2 e2| "A"Bc4d|c3B cd|
"E7"B3E Bc|d2 f3f/2e/2|"A"e3f ed|"A7"cA dA eA|\
"D"d2 f3e|"E7"e2 g2 ga|"A"a4-ab|a3:|
